svgs/sharp-regular/sun-haze.svg

<svg xmlns="http://www.w3.org/2000/svg" viewBox="0 0 640 512"><!--! Font Awesome Pro 6.6.0 by @fontawesome - https://fontawesome.com License - https://fontawesome.com/license (Commercial License) Copyright 2024 Fonticons, Inc. --><path d="M257.1 23.2L320 57.1l62.9-33.9L426 0l14.1 46.9 20.5 68.4 68.4 20.5L576 150l-23.2 43.1L518.9 256s0 0 0 0l-54.5 0s0 0 0 0l12.3-22.8L505.8 179l-59-17.7-24.8-7.4-7.4-24.8L397 70.2 342.8 99.4 320 111.6 297.2 99.4 243 70.2l-17.7 59-7.4 24.8-24.8 7.4-59 17.7 29.2 54.2L175.6 256s0 0 0 0l-54.5 0s0 0 0 0L87.2 193.1 64 150l46.9-14.1 68.4-20.5 20.5-68.4L214 0l43.1 23.2zM432 256s0 0 0 0l-48 0s0 0 0 0c0-35.3-28.7-64-64-64s-64 28.7-64 64c0 0 0 0 0 0l-48 0s0 0 0 0c0-61.9 50.1-112 112-112s112 50.1 112 112zm184 32l24 0 0 48-24 0-112 0-24 0 0-48 24 0 112 0zm-208 0l24 0 0 48-24 0L88 336l-24 0 0-48 24 0 320 0zm168 88l0 48-24 0L24 424 0 424l0-48 24 0 528 0 24 0zM88 464l112 0 24 0 0 48-24 0L88 512l-24 0 0-48 24 0zm208 0l320 0 24 0 0 48-24 0-320 0-24 0 0-48 24 0z"/></svg>

<svg xmlns="http://www.w3.org/2000/svg" viewBox="0 0 640 512"><!--! Font Awesome Pro 6.4.0 by @fontawesome - https://fontawesome.com License - https://fontawesome.com/license (Commercial License) Copyright 2023 Fonticons, Inc. --><path d="M257.1 23.2L320 57.1l62.9-33.9L426 0l14.1 46.9 20.5 68.4 68.4 20.5L576 150l-23.2 43.1L518.9 256l0 0H464.4l0 0 12.3-22.8L505.8 179l-59-17.7-24.8-7.4-7.4-24.8L397 70.2 342.8 99.4 320 111.6 297.2 99.4 243 70.2l-17.7 59-7.4 24.8-24.8 7.4-59 17.7 29.2 54.2L175.6 256l0 0H121.1l0 0L87.2 193.1 64 150l46.9-14.1 68.4-20.5 20.5-68.4L214 0l43.1 23.2zM432 256v0H384v0c0-35.3-28.7-64-64-64s-64 28.7-64 64v0H208v0c0-61.9 50.1-112 112-112s112 50.1 112 112zm184 32h24v48H616 504 480V288h24H616zm-208 0h24v48H408 88 64V288H88 408zm168 88v48H552 24 0V376H24 552h24zM88 464H200h24v48H200 88 64V464H88zm208 0H616h24v48H616 296 272V464h24z"/></svg>
